src/assets/images/brands/lexus.svg

<svg height="58" viewBox="0 0 129 58" width="129" xmlns="http://www.w3.org/2000/svg"><path d="m54.560837 17.830555c-1.626427 2.566212-1.770645 3.807743-1.81596 4.642323-.055058.813827-.055058 2.276603 1.265842 3.472862 2.237618 1.982012 5.354805 1.660732 8.121464 1.660732h22.816715c.972428 0 1.258499-.282276 1.78032-.98752 1.824371-2.778692 2.644218-5.788222 2.644218-8.48406 0-5.772522-3.766136-13.040783-13.282776-16.327969l-1.070373 1.529823c7.546798 3.57074 10.676391 8.24588 10.676391 14.78587.035248 1.751053-.417991 3.647575-1.573929 5.398563h-22.186248c-1.330647 0-1.510354-1.497959-1.038636-2.338634 1.971096-3.477848 3.992112-6.552265 6.360375-9.714802 2.24353-2.981602 4.455391-5.770001 6.766014-8.691807.629433-.8101.209045-1.592148-1.038559-1.847618-2.590683-.546043-5.299721-.92374-8.574623-.92374-18.203598 0-24.842503 10.414783-24.842503 18.134052 0 8.365469 6.697403 18.08754 24.887814 18.08754 10.098182 0 16.711563-3.244404 20.540016-7.406426h-3.860268c-3.351738 3.079443-9.095138 5.261944-16.679748 5.261944-15.40799 0-21.090138-8.628498-21.090138-16.059151.116055-6.626877 6.212696-15.783108 21.476231-16.088447.577888-.016056 1.025139.510772.623123 1.008056-2.610195 3.199025-10.053104 13.552803-10.904762 14.888409m68.581871 29.887035h-14.601402c.195465-1.771881 1.725547-3.251659 3.274902-3.251659h14.777359l-.051308-3.080689h-15.664512c-4.956383 0-8.918061 4.101021-9.037651 8.870442-.019494.333603.206542.537609.585365.537609l17.77594-.062325c.912658.124646 1.61293.845582 1.61293 1.693726 0 .954273-.877403 1.719311-1.928261 1.719311h-19.556541v-12.746445h-5.752991v12.78043h-10.585915c-2.880004 0-3.471626-1.738777-3.471626-3.334698v-9.522571h-9.550934c-.945747.642597-1.858398 1.341648-2.828689 1.929187l-5.660317 3.477887-7.368416-5.359562h-11.45457-10.808506c-2.927746 0-5.177443.762584-6.845352 2.074905-2.998868 2.355938-3.949582 4.848755-3.911602 5.963192h3.898105c-1.712051 1.27581-2.866739 2.808163-3.470371 4.579971h-12.811339c-2.300869 0-3.779403-1.62638-3.779403-3.210052v-9.520378h-5.662588v9.890484c0 3.553478 3.387226 6.013565 8.824951 6.013565h34.566105 8.36539c.896893-.601471 1.739022-1.24062 2.671269-1.806164l5.832539-3.519417 7.38916 5.256985h8.414436l-11.117462-8.338661 5.713905-3.717381c1.215996-.79657 2.49408-1.465011 3.741799-2.200756v8.39743c0 3.535183.906738 5.988965 8.06369 5.988965l40.411911-.094105c3.117271.04509 5.122307-2.109188 5.122307-4.702122 0-2.580875-2.300881-4.707104-5.122307-4.707104m-72.262459 6.236931h-7.224178-13.710734c.055058-1.632728 1.793799-3.272381 3.381213-3.272381h10.329521 2.854412v-3.271347h-2.854412-13.880471c-.189374-.954277 1.606924-2.834961 2.979073-2.834961h10.901398 4.13998v-1.754612l9.749863 6.96996z"/></svg>

<?xml version="1.0" encoding="UTF-8"?>
<!-- Generated by Pixelmator Pro 3.6.14 -->
<svg width="129" height="58" viewBox="0 0 129 58" xmlns="http://www.w3.org/2000/svg">
    <path id="lexus" fill="#000000" stroke="none" d="M 54.560837 17.830555 C 52.93441 20.396767 52.790192 21.638298 52.744877 22.472878 C 52.689819 23.286705 52.689819 24.749481 54.010719 25.94574 C 56.248337 27.927752 59.365524 27.606472 62.132183 27.606472 L 84.948898 27.606472 C 85.921326 27.606472 86.207397 27.324196 86.729218 26.618952 C 88.553589 23.84026 89.373436 20.83073 89.373436 18.134892 C 89.373436 12.36237 85.6073 5.094109 76.09066 1.806923 L 75.020287 3.336746 C 82.567085 6.907486 85.696678 11.582626 85.696678 18.122616 C 85.731926 19.873669 85.278687 21.770191 84.122749 23.521179 L 61.936501 23.521179 C 60.605854 23.521179 60.426147 22.02322 60.897865 21.182545 C 62.868961 17.704697 64.889977 14.63028 67.25824 11.467743 C 69.50177 8.486141 71.713631 5.697742 74.024254 2.775936 C 74.653687 1.965836 74.233299 1.183788 72.985695 0.928318 C 70.395012 0.382275 67.685974 0.004578 64.411072 0.004578 C 46.207474 0.004578 39.568569 10.419361 39.568569 18.13863 C 39.568569 26.504099 46.265972 36.22617 64.456383 36.22617 C 74.554565 36.22617 81.167946 32.981766 84.996399 28.819744 L 81.136131 28.819744 C 77.784393 31.899187 72.040993 34.081688 64.456383 34.081688 C 49.048393 34.081688 43.366245 25.45319 43.366245 18.022537 C 43.4823 11.39566 49.578941 2.239429 64.842476 1.93409 C 65.420364 1.918034 65.867615 2.444862 65.465599 2.942146 C 62.855404 6.141171 55.412495 16.494949 54.560837 17.830555 M 123.142708 47.71759 L 108.541306 47.71759 C 108.736771 45.945709 110.266853 44.465931 111.816208 44.465931 L 126.593567 44.465931 L 126.542259 41.385242 L 110.877747 41.385242 C 105.921364 41.385242 101.959686 45.486263 101.840096 50.255684 C 101.820602 50.589287 102.046638 50.793293 102.425461 50.793293 L 120.201401 50.730968 C 121.114059 50.855614 121.814331 51.57655 121.814331 52.424694 C 121.814331 53.378967 120.936928 54.144005 119.88607 54.144005 L 100.329529 54.144005 L 100.329529 41.39756 L 94.576538 41.39756 L 94.576538 54.17799 L 83.990623 54.17799 C 81.110619 54.17799 80.518997 52.439213 80.518997 50.843292 L 80.518997 41.320721 L 70.968063 41.320721 C 70.022316 41.963318 69.109665 42.662369 68.139374 43.249908 L 62.479057 46.727795 L 55.110641 41.368233 L 43.656071 41.368233 L 32.847565 41.368233 C 29.919819 41.368233 27.670122 42.130817 26.002213 43.443138 C 23.003345 45.799076 22.052631 48.291893 22.090611 49.40633 L 25.988716 49.40633 C 24.276665 50.68214 23.121977 52.214493 22.518345 53.986301 L 9.707006 53.986301 C 7.406137 53.986301 5.927603 52.359921 5.927603 50.776249 L 5.927603 41.255871 L 0.265015 41.255871 L 0.265015 51.146355 C 0.265015 54.699833 3.652241 57.15992 9.089966 57.15992 L 43.656071 57.15992 L 52.021461 57.15992 C 52.918354 56.558449 53.760483 55.9193 54.69273 55.353756 L 60.525269 51.834339 L 67.914429 57.091324 L 76.328865 57.091324 L 65.211403 48.752663 L 70.925308 45.035282 C 72.141304 44.238712 73.419388 43.570271 74.667107 42.834526 L 74.667107 51.231956 C 74.667107 54.767139 75.573845 57.220921 82.730797 57.220921 L 123.142708 57.126816 C 126.259979 57.171906 128.265015 55.017628 128.265015 52.424694 C 128.265015 49.843819 125.964134 47.71759 123.142708 47.71759 M 50.880249 53.954521 L 43.656071 53.954521 L 29.945337 53.954521 C 30.000395 52.321793 31.739136 50.68214 33.32655 50.68214 L 43.656071 50.68214 L 46.510483 50.68214 L 46.510483 47.410793 L 43.656071 47.410793 L 29.7756 47.410793 C 29.586226 46.456516 31.382524 44.575832 32.754673 44.575832 L 43.656071 44.575832 L 47.796051 44.575832 L 47.796051 42.82122 L 57.545914 49.79118 L 50.880249 53.954521 Z"/>
</svg>
